pistes-carto/pics/jump_bw.svg

<?xml version="1.0" encoding="UTF-8"?>
<!-- Created with Inkscape (http://www.inkscape.org/) -->
<svg id="Layer_3" width="36" height="36" version="1.0" viewBox="0 0 36 36" xml:space="preserve" xmlns="http://www.w3.org/2000/svg" xmlns:cc="http://creativecommons.org/ns#" xmlns:dc="http://purl.org/dc/elements/1.1/" xmlns:rdf="http://www.w3.org/1999/02/22-rdf-syntax-ns#"><metadata id="metadata10">    <rdf:RDF>
      <cc:Work rdf:about="">
        <dc:format>image/svg+xml</dc:format>
        <dc:type rdf:resource="http://purl.org/dc/dcmitype/StillImage"/>
        <dc:title/>
        <cc:license rdf:resource="http://creativecommons.org/publicdomain/zero/1.0/"/>
      </cc:Work>
      <cc:License rdf:about="http://creativecommons.org/publicdomain/zero/1.0/">
        <cc:permits rdf:resource="http://creativecommons.org/ns#Reproduction"/>
        <cc:permits rdf:resource="http://creativecommons.org/ns#Distribution"/>
        <cc:permits rdf:resource="http://creativecommons.org/ns#DerivativeWorks"/>
      </cc:License>
    </rdf:RDF></metadata>




<path id="path3017" transform="matrix(2.1653 0 0 2.1653 -.52941 -.85765)" d="m16.87 8.709a8.313 8.313 0 1 1-16.626 0 8.313 8.313 0 1 1 16.626 0z" fill="#fff" opacity=".5"/><g id="g3881" transform="matrix(.93456 0 0 .93456 2.0107 .32701)"><g id="g5354" transform="matrix(3.282 0 0 -3.282 23.691 9.3358)"><path id="path5356" d="m0 0c0.367 0 0.662 0.295 0.662 0.66s-0.295 0.662-0.662 0.662c-0.365 0-0.66-0.297-0.66-0.662s0.295-0.66 0.66-0.66"/></g><g id="g5358" transform="matrix(3.282 0 0 -3.282 14.48 18.137)"><path id="path5360" d="m0 0 2.379 1.537c0.31 0.197 0.404 0.608 0.207 0.918-0.195 0.311-0.607 0.404-0.918 0.207l-1.754-1.133c-0.1-0.064-0.178-0.148-0.228-0.246l-1.826-3.597c-0.107-0.213-0.023-0.471 0.188-0.579 0.211-0.107 0.471-0.023 0.578 0.188l1.374 2.705z"/></g><g id="g5362" transform="matrix(3.282 0 0 -3.282 29.685 17.31)"><path id="path5364" d="m0 0c0.314 0.197 0.412 0.611 0.215 0.926l-0.231-0.141c0.12-0.189 0.061-0.437-0.129-0.555l-7.303-4.623 0.144-0.228 7.304 4.621z"/></g></g></svg>

<?xml version="1.0" encoding="UTF-8" standalone="no"?>
<!-- Created with Inkscape (http://www.inkscape.org/) -->

<svg
   xmlns:dc="http://purl.org/dc/elements/1.1/"
   xmlns:cc="http://creativecommons.org/ns#"
   xmlns:rdf="http://www.w3.org/1999/02/22-rdf-syntax-ns#"
   xmlns:svg="http://www.w3.org/2000/svg"
   xmlns="http://www.w3.org/2000/svg"
   xmlns:sodipodi="http://sodipodi.sourceforge.net/DTD/sodipodi-0.dtd"
   xmlns:inkscape="http://www.inkscape.org/namespaces/inkscape"
   version="1.0"
   width="36"
   height="36"
   viewBox="0 0 36.000002 35.999999"
   id="Layer_3"
   xml:space="preserve"
   inkscape:version="0.48.3.1 r9886"
   sodipodi:docname="playground_bw.svg"
   inkscape:export-filename="/home/yves/.gvfs/SFTP for website on 188.165.232.156/home/website/mapnik/dev/pics/playground_bw.png"
   inkscape:export-xdpi="50"
   inkscape:export-ydpi="50"><metadata
   id="metadata10">    <rdf:RDF>
      <cc:Work
         rdf:about="">
        <dc:format>image/svg+xml</dc:format>
        <dc:type
           rdf:resource="http://purl.org/dc/dcmitype/StillImage" />
        <dc:title></dc:title>
        <cc:license
           rdf:resource="http://creativecommons.org/publicdomain/zero/1.0/" />
      </cc:Work>
      <cc:License
         rdf:about="http://creativecommons.org/publicdomain/zero/1.0/">
        <cc:permits
           rdf:resource="http://creativecommons.org/ns#Reproduction" />
        <cc:permits
           rdf:resource="http://creativecommons.org/ns#Distribution" />
        <cc:permits
           rdf:resource="http://creativecommons.org/ns#DerivativeWorks" />
      </cc:License>
    </rdf:RDF></metadata><sodipodi:namedview
   pagecolor="#ffffff"
   bordercolor="#666666"
   borderopacity="1"
   objecttolerance="10"
   gridtolerance="10"
   guidetolerance="10"
   inkscape:pageopacity="0"
   inkscape:pageshadow="2"
   inkscape:window-width="1273"
   inkscape:window-height="733"
   id="namedview8"
   showgrid="false"
   inkscape:zoom="2.7804383"
   inkscape:cx="-56.013657"
   inkscape:cy="4.7740694"
   inkscape:window-x="152"
   inkscape:window-y="243"
   inkscape:window-maximized="0"
   inkscape:current-layer="Layer_3"
   fit-margin-top="0"
   fit-margin-left="0"
   fit-margin-right="0"
   fit-margin-bottom="0" /><defs
   id="defs2386"><inkscape:perspective
     sodipodi:type="inkscape:persp3d"
     inkscape:vp_x="0 : 275.22501 : 1"
     inkscape:vp_y="0 : 1000 : 0"
     inkscape:vp_z="627.76898 : 275.22501 : 1"
     inkscape:persp3d-origin="313.88449 : 183.48334 : 1"
     id="perspective12" /></defs>




<path
   sodipodi:type="arc"
   style="fill:#ffffff;fill-opacity:1;stroke:none;opacity:0.50000000000000000"
   id="path3017"
   sodipodi:cx="8.557457"
   sodipodi:cy="8.7090464"
   sodipodi:rx="8.3129587"
   sodipodi:ry="8.3129587"
   d="m 16.870416,8.7090464 a 8.3129587,8.3129587 0 1 1 -16.62591775,0 8.3129587,8.3129587 0 1 1 16.62591775,0 z"
   transform="matrix(2.1652942,0,0,2.1652942,-0.52941065,-0.85764743)" /><g
   id="g3881"
   transform="matrix(0.93455843,0,0,0.93455843,2.0106793,0.32700929)"><g
     style="fill:#000000"
     transform="matrix(3.2819865,0,0,-3.2819865,23.691482,9.3357522)"
     id="g5354"><path
       id="path5356"
       style="fill:#000000;fill-opacity:1;fill-rule:nonzero;stroke:none"
       d="M 0,0 C 0.367,0 0.662,0.295 0.662,0.66 0.662,1.025 0.367,1.322 0,1.322 -0.365,1.322 -0.66,1.025 -0.66,0.66 -0.66,0.295 -0.365,0 0,0"
       inkscape:connector-curvature="0" /></g><g
     style="fill:#000000"
     transform="matrix(3.2819865,0,0,-3.2819865,14.480229,18.137091)"
     id="g5358"><path
       id="path5360"
       style="fill:#000000;fill-opacity:1;fill-rule:nonzero;stroke:none"
       d="M 0,0 2.379,1.537 C 2.689,1.734 2.783,2.145 2.586,2.455 2.391,2.766 1.979,2.859 1.668,2.662 L -0.086,1.529 C -0.186,1.465 -0.264,1.381 -0.314,1.283 L -2.14,-2.314 c -0.107,-0.213 -0.023,-0.471 0.188,-0.579 0.211,-0.107 0.471,-0.023 0.578,0.188 L 0,0 z"
       inkscape:connector-curvature="0" /></g><g
     style="fill:#000000"
     transform="matrix(3.2819865,0,0,-3.2819865,29.684988,17.310042)"
     id="g5362"><path
       id="path5364"
       style="fill:#000000;fill-opacity:1;fill-rule:nonzero;stroke:none"
       d="M 0,0 C 0.314,0.197 0.412,0.611 0.215,0.926 L -0.016,0.785 C 0.104,0.596 0.045,0.348 -0.145,0.23 L -7.448,-4.393 -7.304,-4.621 0,0 z"
       inkscape:connector-curvature="0" /></g></g></svg>
